svg/sign-out.svg

<svg width="24" height="24" viewBox="0 0 24 24" xmlns="http://www.w3.org/2000/svg"><g fill-rule="evenodd"><path d="M7 7v10h5v3H4V4h8v3H7z"/><path d="M15 10h-5v4h5v2l5-4-5-4v2z"/></g></svg>

<svg width="24" height="24" viewBox="0 0 24 24" xmlns="http://www.w3.org/2000/svg"><title>FC967972-D7FF-4F0B-A4D2-4D965C307B73</title><g fill="#4C566C" fill-rule="evenodd"><path d="M7 7L7 17 12 17 12 20 6.5 20 4 20 4 4 6.5 4 12 4 12 7 7 7z"/><path d="M15,10 L10,10 L10,14 L15,14 L15,16 L20,12 L15,8 L15,10 Z"/></g></svg>
